X:1
T:60 Lessons for 2 Guitars, Op.168 - Joseph Küffner (1776 - 1856)
T:Leçon No.56
T:60 Lessons for 2 Guitars, Op.168 "à l'usage des commençants"
T:Joseph Küffner (1776 - 1856)
%%score { ( 1 2 ) ( 3 4 ) }
L:1/8
Q:1/8=108
M:6/8
K:F
V:1 treble-8 nm="Classical Guitar"
V:2 treble-8 
V:3 treble-8 nm="Guitare classique"
V:4 treble-8 
V:1
"^Andante""_" z/ .A/.c/.f/.a/.f/ .c'2 z | z/ .E/.G/.c/.e/.c/ g2 z | z/ A/c/f/a/c'/ d'2 z | %3
 a2 g f2 z | c2 A f2 c | B2 G g2 c | cff fec | ca g/f/ f2 e | c2 f gf d/B/ | =B2 g (ag) e/c/ | %10
 a>e (g/4f/4).e/4.d/4 c2 A | G>_Bd/c/ B2 A | Acf a>fc/A/ | c>BA/G/ F2 z | [CA]2 [A,F] [Ac]2 [FA] | %15
 G2 (B/A/) G2 z | A2 A B2 (A/G/) | F2 (A/G/) F2 z |] %18
V:2
 F3 z2 z | C3 z2 z | F3 z2 z | c2 B A2 z | x6 | x6 | x6 | x6 | x6 | x6 | x6 | x6 | x6 | x6 | x6 | %15
 C3 C2 x | F2 _E D3 | x6 |] %18
V:3
"_" !arpeggio![F,Acf]2 z z2 z | !arpeggio![CBce]2 z z2 z | %2
 !arpeggio![F,Acf]2 z !arpeggio![B,Bdg]2 z | z/ A/c/f/ C/[Bce]/x[Acf] z | %4
 z/ F/A/c/F/A/ z/ F/A/c/F/A/ | z/ E/B/c/E/B/ z/ E/B/c/E/B/ | z/ F/A/c/F/A/ z/ E/B/c/E/B/ | %7
 z/ F/A/c/F/A/ z/ E/G/c/E/G/ | z/ A/c/A/F/A/ z/ B/d/B/G/B/ | z/ G/=B/G/D/G/ z/ G/c/G/E/G/ | %10
 z/ A/c/A/B/d/ z/ A/c/A/F/A/ | z/ B/c/B/E/B/ z/ A/c/A/F/A/ | z/ F/A/c/F/A/ z/ F/A/c/F/A/ | %13
 z/ E/B/c/E/B/x[FAc] z | F,/F/F,/F/F,/F/ F,/F/F,/F/F,/F/ | z/ E/G/E/C/E/ z/ E/G/E/C/E/ | %16
 F,/F/F,/F/F,/F/ .B,/.B/.B,/.B,/.B,/.B,/ | z/ F/A/F/ C/E/ F,F z |] %18
V:4
 x6 | x6 | x6 | C2 C F3 | F,3 F,3 | C3 C3 | F,3 G,3 | F,3 C3 | F3 B,3 | G,3 C3 | F2 F F3 | E3 F3 | %12
 F,3 F,3 | C3 F,3 | x6 | C3 C3 | x6 | C2 C x3 |] %18

